domains/upgrade/hsts-https/hsts-test/status.svg

<svg height="60" viewBox="0 0 345 60" width="345" xmlns="http://www.w3.org/2000/svg"><g fill="none" fill-rule="evenodd" transform="translate(0 -1)"><text fill="#0f0" font-family="Lucida Grande" font-size="50" stroke="#fff" stroke-width="2"><tspan x="6" y="48">✓</tspan></text><path d="m53.3574219 44v-26.015625h3.6914062v10.96875h12.375v-10.96875h3.6914063v26.015625h-3.6914063v-12.2871094h-12.375v12.2871094zm31.5527343.6503906c-1.7461024 0-3.978502-.3808555-6.6972656-1.1425781v-3.65625c2.9297022 1.3593818 5.3378812 2.0390625 7.2246094 2.0390625 1.4531323 0 2.6220659-.3808556 3.5068359-1.1425781.8847701-.7617226 1.3271485-1.7636657 1.3271485-3.0058594 0-1.0195363-.2900362-1.8867152-.8701172-2.6015625s-1.6494063-1.5117144-3.2080078-2.390625l-1.7929688-1.0371094c-2.2148548-1.2656313-3.7763626-2.4580022-4.6845703-3.5771484s-1.3623047-2.4228441-1.3623047-3.9111328c0-2.0039163.7265553-3.6533139 2.1796875-4.9482422 1.4531323-1.2949284 3.3046763-1.9423828 5.5546875-1.9423828 2.0039163 0 4.1191295.333981 6.3457032 1.0019531v3.375c-2.7422013-1.0781304-4.7871027-1.6171875-6.1347657-1.6171875-1.2773501 0-2.3320271.3398404-3.1640625 1.0195312-.8320354.6796909-1.2480468 1.5351511-1.2480468 2.5664063 0 .8671918.3046844 1.6347623.9140624 2.3027344.6093781.6679721 1.7226482 1.4648391 3.3398438 2.390625l1.8632812 1.0546875c2.2500113 1.2773501 3.8203081 2.4843693 4.7109376 3.6210937.8906294 1.1367245 1.3359374 2.5019452 1.3359374 4.0957031 0 2.2617301-.8349525 4.0781182-2.5048828 5.4492188-1.6699302 1.3711006-3.8818221 2.0566406-6.6357422 2.0566406zm20.4785158-.6503906v-23.2558594h-9.2285158v-2.7597656h22.1484378v2.7597656h-9.228516v23.2558594zm21.673828.6503906c-1.746102 0-3.978502-.3808555-6.697266-1.1425781v-3.65625c2.929703 1.3593818 5.337882 2.0390625 7.22461 2.0390625 1.453132 0 2.622066-.3808556 3.506836-1.1425781.88477-.7617226 1.327148-1.7636657 1.327148-3.0058594 0-1.0195363-.290036-1.8867152-.870117-2.6015625s-1.649406-1.5117144-3.208008-2.390625l-1.792969-1.0371094c-2.214854-1.2656313-3.776362-2.4580022-4.68457-3.5771484s-1.362305-2.4228441-1.362305-3.9111328c0-2.0039163.726556-3.6533139 2.179688-4.9482422 1.453132-1.2949284 3.304676-1.9423828 5.554687-1.9423828 2.003917 0 4.11913.333981 6.345704 1.0019531v3.375c-2.742202-1.0781304-4.787103-1.6171875-6.134766-1.6171875-1.27735 0-2.332027.3398404-3.164063 1.0195312-.832035.6796909-1.248047 1.5351511-1.248047 2.5664063 0 .8671918.304685 1.6347623.914063 2.3027344s1.722648 1.4648391 3.339844 2.390625l1.863281 1.0546875c2.250011 1.2773501 3.820308 2.4843693 4.710938 3.6210937.890629 1.1367245 1.335937 2.5019452 1.335937 4.0957031 0 2.2617301-.834953 4.0781182-2.504883 5.4492188s-3.881822 2.0566406-6.635742 2.0566406zm25.787109-.6503906v-19.0898438h3.462891v19.0898438zm0-22.5527344v-3.4628906h3.462891v3.4628906zm15.46875 22.9921875c-1.582039 0-3.503895-.3691369-5.765625-1.1074219v-3.1816406c2.26173 1.1250057 4.230461 1.6875 5.90625 1.6875.996099 0 1.822263-.2695285 2.478516-.8085937s.984375-1.2128866.984375-2.0214844c0-1.1835997-.919913-2.1621055-2.759766-2.9355469l-2.021484-.8613281c-2.988296-1.2421937-4.482422-3.0292852-4.482422-5.3613281 0-1.6640708.588861-2.9736281 1.766602-3.928711 1.17774-.9550829 2.791982-1.4326172 4.842773-1.4326172 1.066412 0 2.384758.146483 3.955078.4394532l.720703.140625v2.8828125c-1.933603-.5742216-3.468744-.8613281-4.605468-.8613281-2.226574 0-3.339844.8085856-3.339844 2.4257812 0 1.042974.843741 1.9218714 2.53125 2.6367188l1.669922.703125c1.886728.7968789 3.222652 1.6376908 4.007812 2.5224609.78516.88477 1.177735 1.9892512 1.177735 3.3134765 0 1.6757897-.662103 3.052729-1.986328 4.1308594-1.324226 1.0781304-3.017568 1.6171875-5.080079 1.6171875zm26.894532-.4394531-5.466797-19.0898438h3.392578l4.183594 14.7832032 4.517578-14.7832032h3.46289l3.955078 14.7832032 4.798829-14.7832032h2.970703l-6.222656 19.0898438h-3.480469l-4.042969-14.7832031-4.570312 14.7832031zm32.99414.4394531c-2.730482 0-4.910148-.9052644-6.539062-2.7158203-1.628915-1.8105559-2.44336-4.2333832-2.44336-7.2685547 0-3.0703278.817375-5.4990145 2.452149-7.2861328s3.852525-2.6806641 6.65332-2.6806641 5.018547.8935458 6.65332 2.6806641c1.634774 1.7871183 2.452149 4.2040863 2.452149 7.2509766 0 3.1172031-.820304 5.5663973-2.460938 7.3476562-1.640633 1.7812589-3.89647 2.671875-6.767578 2.671875zm.052735-2.6015625c3.667987 0 5.501953-2.4726315 5.501953-7.4179687 0-4.8867432-1.810529-7.3300781-5.431641-7.3300781-3.609393 0-5.414062 2.4550535-5.414062 7.3652343 0 4.9218996 1.781232 7.3828125 5.34375 7.3828125zm14.589843 2.1621094v-19.0898438h3.462891v3.5859376c1.371101-2.6718884 3.363268-4.0078126 5.976563-4.0078126.351564 0 .720701.0292966 1.107421.0878907v3.234375c-.597659-.1992198-1.124997-.2988281-1.582031-.2988281-2.191417 0-4.025383 1.3007682-5.501953 3.9023437v12.5859375zm14.730469 0v-27.7558594h3.462891v17.9296875l8.085937-9.2636719h3.726563l-7.716797 8.9121094 9.316406 10.1777344h-4.429687l-8.982422-9.7910156v9.7910156zm21.041016 0v-19.0898438h3.46289v19.0898438zm0-22.5527344v-3.4628906h3.46289v3.4628906zm10.40625 22.5527344v-19.0898438h3.46289v3.5859376c1.828135-2.6718884 4.066393-4.0078126 6.714844-4.0078126 1.652352 0 2.970698.5244089 3.955078 1.5732422.98438 1.0488334 1.476563 2.457999 1.476563 4.2275391v13.7109375h-3.462891v-12.5859375c0-1.4179758-.208006-2.4287079-.624023-3.0322266-.416018-.6035186-1.104488-.9052734-2.06543-.9052734-2.121104 0-4.119131 1.388658-5.994141 4.1660156v12.3574219zm22.412109 6.3457031.404297-3.0058593c2.003916.9492234 3.978506 1.4238281 5.923828 1.4238281 3.902363 0 5.853516-2.0683387 5.853516-6.2050781v-3.0058594c-1.27735 2.6718883-3.374986 4.0078125-6.292969 4.0078125-2.285168 0-4.101556-.832023-5.449219-2.4960938s-2.021484-3.908189-2.021484-6.7324219c0-2.9062645.76757-5.2734283 2.302734-7.1015624 1.535164-1.8281342 3.521472-2.7421876 5.958985-2.7421876 2.132823 0 3.966789.8671789 5.501953 2.6015626v-2.1796876h3.480468v13.8867188c0 2.9882962-.155271 5.2001881-.46582 6.6357422-.310548 1.435554-.89355 2.610347-1.749023 3.524414-1.511727 1.6054768-3.861312 2.4082032-7.048828 2.4082032-2.226574 0-4.359365-.3398404-6.398438-1.0195313zm12.181641-12.9550781v-7.9277344c-1.523445-1.5820391-3.181632-2.3730468-4.97461-2.3730468-1.593758 0-2.841792.6386654-3.74414 1.9160156-.902349 1.2773501-1.353516 3.0292857-1.353516 5.2558594 0 4.1836146 1.470689 6.2753906 4.41211 6.2753906 2.003916 0 3.890616-1.0488177 5.660156-3.1464844zm10.248047 6.609375v-4.3417969h4.341797v4.3417969z" fill="#fff"/></g></svg>

<?xml version="1.0" encoding="UTF-8" standalone="no"?>
<svg width="345px" height="60px" viewBox="0 0 345 60" version="1.1" xmlns="http://www.w3.org/2000/svg" xmlns:xlink="http://www.w3.org/1999/xlink">
    <defs></defs>
    <g id="Page-1" stroke="none" stroke-width="1" fill="none" fill-rule="evenodd">
        <g id="hsts-https" transform="translate(0.000000, -1.000000)">
            <text id="✓" stroke="#FFFFFF" stroke-width="2" font-family="Lucida Grande" font-size="50" font-weight="normal" fill="#00FF00">
                <tspan x="6" y="48">✓</tspan>
            </text>
            <path d="M53.3574219,44 L53.3574219,17.984375 L57.0488281,17.984375 L57.0488281,28.953125 L69.4238281,28.953125 L69.4238281,17.984375 L73.1152344,17.984375 L73.1152344,44 L69.4238281,44 L69.4238281,31.7128906 L57.0488281,31.7128906 L57.0488281,44 L53.3574219,44 Z M84.9101562,44.6503906 C83.1640538,44.6503906 80.9316542,44.2695351 78.2128906,43.5078125 L78.2128906,39.8515625 C81.1425928,41.2109443 83.5507718,41.890625 85.4375,41.890625 C86.8906323,41.890625 88.0595659,41.5097694 88.9443359,40.7480469 C89.829106,39.9863243 90.2714844,38.9843812 90.2714844,37.7421875 C90.2714844,36.7226512 89.9814482,35.8554723 89.4013672,35.140625 C88.8212862,34.4257777 87.7519609,33.6289106 86.1933594,32.75 L84.4003906,31.7128906 C82.1855358,30.4472593 80.624028,29.2548884 79.7158203,28.1357422 C78.8076126,27.016596 78.3535156,25.7128981 78.3535156,24.2246094 C78.3535156,22.2206931 79.0800709,20.5712955 80.5332031,19.2763672 C81.9863354,17.9814388 83.8378794,17.3339844 86.0878906,17.3339844 C88.0918069,17.3339844 90.2070201,17.6679654 92.4335938,18.3359375 L92.4335938,21.7109375 C89.6913925,20.6328071 87.6464911,20.09375 86.2988281,20.09375 C85.021478,20.09375 83.966801,20.4335904 83.1347656,21.1132812 C82.3027302,21.7929721 81.8867188,22.6484323 81.8867188,23.6796875 C81.8867188,24.5468793 82.1914032,25.3144498 82.8007812,25.9824219 C83.4101593,26.650394 84.5234294,27.447261 86.140625,28.3730469 L88.0039062,29.4277344 C90.2539175,30.7050845 91.8242143,31.9121037 92.7148438,33.0488281 C93.6054732,34.1855526 94.0507812,35.5507733 94.0507812,37.1445312 C94.0507812,39.4062613 93.2158287,41.2226494 91.5458984,42.59375 C89.8759682,43.9648506 87.6640763,44.6503906 84.9101562,44.6503906 L84.9101562,44.6503906 Z M105.388672,44 L105.388672,20.7441406 L96.1601562,20.7441406 L96.1601562,17.984375 L118.308594,17.984375 L118.308594,20.7441406 L109.080078,20.7441406 L109.080078,44 L105.388672,44 Z M127.0625,44.6503906 C125.316398,44.6503906 123.083998,44.2695351 120.365234,43.5078125 L120.365234,39.8515625 C123.294937,41.2109443 125.703116,41.890625 127.589844,41.890625 C129.042976,41.890625 130.21191,41.5097694 131.09668,40.7480469 C131.98145,39.9863243 132.423828,38.9843812 132.423828,37.7421875 C132.423828,36.7226512 132.133792,35.8554723 131.553711,35.140625 C130.97363,34.4257777 129.904305,33.6289106 128.345703,32.75 L126.552734,31.7128906 C124.33788,30.4472593 122.776372,29.2548884 121.868164,28.1357422 C120.959956,27.016596 120.505859,25.7128981 120.505859,24.2246094 C120.505859,22.2206931 121.232415,20.5712955 122.685547,19.2763672 C124.138679,17.9814388 125.990223,17.3339844 128.240234,17.3339844 C130.244151,17.3339844 132.359364,17.6679654 134.585938,18.3359375 L134.585938,21.7109375 C131.843736,20.6328071 129.798835,20.09375 128.451172,20.09375 C127.173822,20.09375 126.119145,20.4335904 125.287109,21.1132812 C124.455074,21.7929721 124.039062,22.6484323 124.039062,23.6796875 C124.039062,24.5468793 124.343747,25.3144498 124.953125,25.9824219 C125.562503,26.650394 126.675773,27.447261 128.292969,28.3730469 L130.15625,29.4277344 C132.406261,30.7050845 133.976558,31.9121037 134.867188,33.0488281 C135.757817,34.1855526 136.203125,35.5507733 136.203125,37.1445312 C136.203125,39.4062613 135.368172,41.2226494 133.698242,42.59375 C132.028312,43.9648506 129.81642,44.6503906 127.0625,44.6503906 L127.0625,44.6503906 Z M152.849609,44 L152.849609,24.9101562 L156.3125,24.9101562 L156.3125,44 L152.849609,44 Z M152.849609,21.4472656 L152.849609,17.984375 L156.3125,17.984375 L156.3125,21.4472656 L152.849609,21.4472656 Z M168.318359,44.4394531 C166.73632,44.4394531 164.814464,44.0703162 162.552734,43.3320312 L162.552734,40.1503906 C164.814464,41.2753963 166.783195,41.8378906 168.458984,41.8378906 C169.455083,41.8378906 170.281247,41.5683621 170.9375,41.0292969 C171.593753,40.4902317 171.921875,39.8164103 171.921875,39.0078125 C171.921875,37.8242128 171.001962,36.845707 169.162109,36.0722656 L167.140625,35.2109375 C164.152329,33.9687438 162.658203,32.1816523 162.658203,29.8496094 C162.658203,28.1855386 163.247064,26.8759813 164.424805,25.9208984 C165.602545,24.9658155 167.216787,24.4882812 169.267578,24.4882812 C170.33399,24.4882812 171.652336,24.6347642 173.222656,24.9277344 L173.943359,25.0683594 L173.943359,27.9511719 C172.009756,27.3769503 170.474615,27.0898438 169.337891,27.0898438 C167.111317,27.0898438 165.998047,27.8984294 165.998047,29.515625 C165.998047,30.558599 166.841788,31.4374964 168.529297,32.1523438 L170.199219,32.8554688 C172.085947,33.6523477 173.421871,34.4931596 174.207031,35.3779297 C174.992191,36.2626997 175.384766,37.3671809 175.384766,38.6914062 C175.384766,40.3671959 174.722663,41.7441352 173.398438,42.8222656 C172.074212,43.900396 170.38087,44.4394531 168.318359,44.4394531 L168.318359,44.4394531 Z M195.212891,44 L189.746094,24.9101562 L193.138672,24.9101562 L197.322266,39.6933594 L201.839844,24.9101562 L205.302734,24.9101562 L209.257812,39.6933594 L214.056641,24.9101562 L217.027344,24.9101562 L210.804688,44 L207.324219,44 L203.28125,29.2167969 L198.710938,44 L195.212891,44 Z M228.207031,44.4394531 C225.476549,44.4394531 223.296883,43.5341887 221.667969,41.7236328 C220.039054,39.9130769 219.224609,37.4902496 219.224609,34.4550781 C219.224609,31.3847503 220.041984,28.9560636 221.676758,27.1689453 C223.311532,25.381827 225.529283,24.4882812 228.330078,24.4882812 C231.130873,24.4882812 233.348625,25.381827 234.983398,27.1689453 C236.618172,28.9560636 237.435547,31.3730316 237.435547,34.4199219 C237.435547,37.537125 236.615243,39.9863192 234.974609,41.7675781 C233.333976,43.548837 231.078139,44.4394531 228.207031,44.4394531 L228.207031,44.4394531 Z M228.259766,41.8378906 C231.927753,41.8378906 233.761719,39.3652591 233.761719,34.4199219 C233.761719,29.5331787 231.95119,27.0898438 228.330078,27.0898438 C224.720685,27.0898438 222.916016,29.5448973 222.916016,34.4550781 C222.916016,39.3769777 224.697248,41.8378906 228.259766,41.8378906 L228.259766,41.8378906 Z M242.849609,44 L242.849609,24.9101562 L246.3125,24.9101562 L246.3125,28.4960938 C247.683601,25.8242054 249.675768,24.4882812 252.289063,24.4882812 C252.640627,24.4882812 253.009764,24.5175778 253.396484,24.5761719 L253.396484,27.8105469 C252.798825,27.6113271 252.271487,27.5117188 251.814453,27.5117188 C249.623036,27.5117188 247.78907,28.812487 246.3125,31.4140625 L246.3125,44 L242.849609,44 Z M257.580078,44 L257.580078,16.2441406 L261.042969,16.2441406 L261.042969,34.1738281 L269.128906,24.9101562 L272.855469,24.9101562 L265.138672,33.8222656 L274.455078,44 L270.025391,44 L261.042969,34.2089844 L261.042969,44 L257.580078,44 Z M278.621094,44 L278.621094,24.9101562 L282.083984,24.9101562 L282.083984,44 L278.621094,44 Z M278.621094,21.4472656 L278.621094,17.984375 L282.083984,17.984375 L282.083984,21.4472656 L278.621094,21.4472656 Z M289.027344,44 L289.027344,24.9101562 L292.490234,24.9101562 L292.490234,28.4960938 C294.318369,25.8242054 296.556627,24.4882812 299.205078,24.4882812 C300.85743,24.4882812 302.175776,25.0126901 303.160156,26.0615234 C304.144536,27.1103568 304.636719,28.5195224 304.636719,30.2890625 L304.636719,44 L301.173828,44 L301.173828,31.4140625 C301.173828,29.9960867 300.965822,28.9853546 300.549805,28.3818359 C300.133787,27.7783173 299.445317,27.4765625 298.484375,27.4765625 C296.363271,27.4765625 294.365244,28.8652205 292.490234,31.6425781 L292.490234,44 L289.027344,44 Z M311.439453,50.3457031 L311.84375,47.3398438 C313.847666,48.2890672 315.822256,48.7636719 317.767578,48.7636719 C321.669941,48.7636719 323.621094,46.6953332 323.621094,42.5585938 L323.621094,39.5527344 C322.343744,42.2246227 320.246108,43.5605469 317.328125,43.5605469 C315.042957,43.5605469 313.226569,42.7285239 311.878906,41.0644531 C310.531243,39.4003823 309.857422,37.1562641 309.857422,34.3320312 C309.857422,31.4257667 310.624992,29.0586029 312.160156,27.2304688 C313.69532,25.4023346 315.681628,24.4882812 318.119141,24.4882812 C320.251964,24.4882812 322.08593,25.3554601 323.621094,27.0898438 L323.621094,24.9101562 L327.101562,24.9101562 L327.101562,38.796875 C327.101562,41.7851712 326.946291,43.9970631 326.635742,45.4326172 C326.325194,46.8681712 325.742192,48.0429642 324.886719,48.9570312 C323.374992,50.562508 321.025407,51.3652344 317.837891,51.3652344 C315.611317,51.3652344 313.478526,51.025394 311.439453,50.3457031 L311.439453,50.3457031 Z M323.621094,37.390625 L323.621094,29.4628906 C322.097649,27.8808515 320.439462,27.0898438 318.646484,27.0898438 C317.052726,27.0898438 315.804692,27.7285092 314.902344,29.0058594 C313.999995,30.2832095 313.548828,32.0351451 313.548828,34.2617188 C313.548828,38.4453334 315.019517,40.5371094 317.960938,40.5371094 C319.964854,40.5371094 321.851554,39.4882917 323.621094,37.390625 L323.621094,37.390625 Z M333.869141,44 L333.869141,39.6582031 L338.210938,39.6582031 L338.210938,44 L333.869141,44 Z" id="HSTS-is-working.-Copy" fill="#FFFFFF"></path>
        </g>
    </g>
</svg>
